src/svg/file-binary.svg

<svg height="16" width="12" xmlns="http://www.w3.org/2000/svg" viewBox="0 0 12 16">
  <path d="M4 12h1v1H2v-1h1V10h-1v-1h2v3z m8-7.5v9.5c0 0.55-0.45 1-1 1H1c-0.55 0-1-0.45-1-1V2c0-0.55 0.45-1 1-1h7.5l3.5 3.5z m-1 0.5L8 2H1v12h10V5z m-3-1H6v1h1v2h-1v1h3v-1h-1V4z m-6 0h3v4H2V4z m1 3h1V5h-1v2z m3 2h3v4H6V9z m1 3h1V10h-1v2z" />
</svg>

<?xml version="1.0" encoding="UTF-8" standalone="no"?>
<svg width="12px" height="16px" viewBox="0 0 12 16" version="1.1" xmlns="http://www.w3.org/2000/svg" xmlns:xlink="http://www.w3.org/1999/xlink">
    <!-- Generator: Sketch 3.7.1 (28215) - http://www.bohemiancoding.com/sketch -->
    <title>file-binary</title>
    <desc>Created with Sketch.</desc>
    <defs></defs>
    <g id="Octicons" stroke="none" stroke-width="1" fill="none" fill-rule="evenodd">
        <g id="file-binary" fill="#000000">
            <path d="M4,12 L5,12 L5,13 L2,13 L2,12 L3,12 L3,10 L2,10 L2,9 L4,9 L4,12 L4,12 Z M12,4.5 L12,14 C12,14.55 11.55,15 11,15 L1,15 C0.45,15 0,14.55 0,14 L0,2 C0,1.45 0.45,1 1,1 L8.5,1 L12,4.5 L12,4.5 Z M11,5 L8,2 L1,2 L1,14 L11,14 L11,5 L11,5 Z M8,4 L6,4 L6,5 L7,5 L7,7 L6,7 L6,8 L9,8 L9,7 L8,7 L8,4 L8,4 Z M2,4 L5,4 L5,8 L2,8 L2,4 L2,4 Z M3,7 L4,7 L4,5 L3,5 L3,7 L3,7 Z M6,9 L9,9 L9,13 L6,13 L6,9 L6,9 Z M7,12 L8,12 L8,10 L7,10 L7,12 L7,12 Z" id="Shape"></path>
        </g>
    </g>
</svg>
